X:1
T:Title
%%score { 1 | 2 }
L:1/8
M:3/4
K:Ab
V:1 treble nm="Grand Piano"
V:2 bass 
V:1
 z2 z[Q:1/4=86] [CE] [DF][CE] | [Ec]3 [_Gc] [Fd][DF] | [FB]3 [FB] [EG][Gd] | F3 G AB | %4
[M:3/8] [CE]3 | [CE][DF][CE] |[M:3/4] [Ec]3 [_Ge] [Fe][Fd] | [Fd]3 [DF] [FA][Fd] | c3 B AG | %9
[M:3/8] [CA]3 | [EA][DG][Gd] |[M:3/4] [Gd]3 [DF] [CE][Ec] | [Ec]3 c cd | e3 c [EA][Ec] | %14
[M:3/8] B3 | Bcd |[M:3/4] c3 [_GA] [GB][GA] | [FA]3 [DF] [FA]F |[M:7/8] E3 E[=DF]3/2[_DB]3/2 | %19
[M:3/8] [CA]3 |] %20
V:2
 z2 z [A,,A,] [A,,A,][A,,A,] | [A,,A,]3 [A,,A,] [D,A,][D,=A,] | [D,B,]3 [D,B,] [E,B,][E,B,] | %3
 [E,G,D]3 [E,B,D] [E,F,D][E,G,D] |[M:3/8] [A,,A,]3 | [A,,A,][A,,A,][A,,A,] | %6
[M:3/4] [A,,A,]3 [C,A,] [D,A,][D,A,] | [D,A,]3 [D,A,] [D,A,][B,,A,] | [E,A,E]3 [E,D] [E,C][E,D] | %9
[M:3/8] [A,,E,]3 | [A,C][E,B,][E,B,] |[M:3/4] [E,B,]3 [E,G,] [A,,A,][A,,A,] | %12
 [A,,A,]3[K:treble] [A,E] [A,E][A,B,E] | [A,CA]3 [A,E][K:bass] [C,A,][A,,A,] |[M:3/8] [E,G,E]3 | %15
 [E,G,E][E,A,E][E,B,E] |[M:3/4] [A,E]3 [C,A,] [C,A,][C,A,] | [D,D]3 [D,A,] [D,A,][D,A,D] | %18
[M:7/8] [E,A,C]3 [C,A,][B,,A,]3/2[E,G,]3/2 |[M:3/8] [A,,A,]3 |] %20

